X: 11058
T: Dublin, The
R: reel
M: 4/4
K: Dmajor
dF (3FFF dFeF|dF (3FFF AFEF|dF (3FFF dfed|1 cdBc ABcA:|2 cdBc ABdf||
|:eA (3AAA eAfA|eA (3AAA BAFA|eA (3AAA egfe|1 dcdA BAFA:|2 dcBA ^GABc||
|:d3c dAFA|dcdA FDFA|1 d2dc dfed|cdBc Agfe:|2 dcdf edeg|(3fga ec dcBc||

